X: 479
T: Xiu hebao
L: 1/8
M: 2/4
K: Bb
f f f b [I:setbarnb 1]| 
g f e c | 
f> g f e/ c/ | 
B2c2 | 
fe2f | 
c> B A B | 
c f f A | 
F4 |]

@@@ Tune index: 9353
